X:1
T: Queensway
C:
R:Strathspey
Q: 128
K:C
M:4/4
L:1/16
|:E2D2|C6 D2 E4 G4|c6 d2 e6 d2|c6 A2 G4 E4|E4 D4 D4 E2D2|
C6 D2 E4 F4|G4 A4 c4 d4|e6 d2 c4 A4|c12 c2d2|
e6 d2 e4 f4|g4 a2b2 c'2b2 a2g2|a2g2 f2e2 c'4 e4|e4 d4 g2f2 e2d2|
c6 d2 c4 A4|G4 A2B2 c4 F4|E2 G6 E6 D2|C12:|
